svg/fluentui-system-icons/ic_fluent_table_resize_row_24_filled.svg

<svg width="24" height="24" viewBox="0 0 24 24" fill="none" xmlns="http://www.w3.org/2000/svg">
<path d="M21 17.75C21 19.5449 19.5449 21 17.75 21H6.25C4.45508 21 3 19.5449 3 17.75V17.5H9.64715L10.8373 18.558C11.5004 19.1473 12.4996 19.1473 13.1626 18.558L14.3528 17.5H21V17.75ZM8.44202 14.0874C8.90823 13.5629 9.61905 13.3849 10.25 13.5725L10.25 10.4275C9.61905 10.6151 8.90823 10.4371 8.44202 9.91263C7.96112 9.37163 7.87688 8.61537 8.16834 8L3 8V16H8.16835C7.87688 15.3846 7.96112 14.6284 8.44202 14.0874ZM13.75 10.4275V13.5725C14.3809 13.3849 15.0917 13.5629 15.5579 14.0874C16.0388 14.6284 16.1231 15.3846 15.8316 16H21V8L15.8316 8C16.1231 8.61537 16.0388 9.37163 15.5579 9.91263C15.0917 10.4371 14.3809 10.6151 13.75 10.4275ZM14.3528 6.5L21 6.5V6.25C21 4.45507 19.5449 3 17.75 3H6.25C4.45508 3 3 4.45507 3 6.25V6.5L9.64713 6.5L10.8373 5.44203C11.5004 4.85265 12.4996 4.85265 13.1626 5.44203L14.3528 6.5ZM12.75 15.5799V8.42013L13.7517 9.31055C14.0613 9.58574 14.5354 9.55785 14.8105 9.24826C15.0857 8.93868 15.0579 8.46462 14.7483 8.18944L12.4983 6.18944C12.2141 5.93684 11.7859 5.93684 11.5017 6.18944L9.25172 8.18944C8.94213 8.46462 8.91425 8.93868 9.18944 9.24826C9.46462 9.55785 9.93868 9.58574 10.2483 9.31055L11.25 8.42012V15.5799L10.2483 14.6895C9.93868 14.4143 9.46462 14.4421 9.18944 14.7517C8.91425 15.0613 8.94213 15.5354 9.25172 15.8106L11.5017 17.8106C11.5057 17.8141 11.5098 17.8177 11.5139 17.8211C11.6379 17.9268 11.7969 17.9928 11.971 17.9995C11.9897 18.0002 12.0084 18.0002 12.027 17.9995C12.2088 17.9931 12.3742 17.9219 12.5007 17.8084L14.7483 15.8106C15.0579 15.5354 15.0857 15.0613 14.8105 14.7517C14.5354 14.4421 14.0613 14.4143 13.7517 14.6895L12.75 15.5799Z" fill="#212121"/>
</svg>

<svg xmlns="http://www.w3.org/2000/svg" width="24" height="24"><path d="M21 17.75A3.25 3.25 0 0 1 17.75 21H6.25A3.25 3.25 0 0 1 3 17.75v-.25h6.647l1.19 1.058a1.75 1.75 0 0 0 2.326 0l1.19-1.058H21v.25ZM8.442 14.087a1.75 1.75 0 0 1 1.808-.514v-3.146A1.75 1.75 0 0 1 8.168 8H3v8h5.168a1.75 1.75 0 0 1 .274-1.913Zm5.308-3.66v3.146A1.75 1.75 0 0 1 15.832 16H21V8h-5.168a1.75 1.75 0 0 1-2.082 2.428Zm.603-3.927H21v-.25A3.25 3.25 0 0 0 17.75 3H6.25A3.25 3.25 0 0 0 3 6.25v.25h6.647l1.19-1.058a1.75 1.75 0 0 1 2.326 0l1.19 1.058Zm-1.603 9.08V8.42l1.002.89a.75.75 0 0 0 .996-1.12l-2.25-2a.75.75 0 0 0-.996 0l-2.25 2a.75.75 0 1 0 .996 1.12l1.002-.89v7.16l-1.002-.89a.75.75 0 1 0-.996 1.12l2.25 2 .012.011a.747.747 0 0 0 .987-.013l2.247-1.997a.75.75 0 0 0-.996-1.121l-1.002.89Z"/></svg>
